!!!COM:	Martini, Johannes
!!!CDT:	~1440///-~1497//
!!!OPR:	Missa Coda di pavon
!!!ONM:	5
!!!OTL:	Agnus Dei
!!!AGN:	Mass; Agnus Dei
!!!SCT:	Mar1002e
!!!SCA:	Mar1002e
!!!voices:	4
!!!voices-OPR:	4
**kern	**kern	**kern	**kern
*staff4	*staff3	*staff2	*staff1
*Ivox	*Ivox	*Ivox	*Ivox
*I"Bassus	*I"Tenor	*I"Contra	*I"Superius
*I'B	*I'T	*I'C	*I'S
*>[A,B,C]	*>[A,B,C]	*>[A,B,C]	*>[A,B,C]
*>A	*>A	*>A	*>A
*clefF4	*clefGv2	*clefGv2	*clefG2
*k[]	*k[]	*k[]	*k[]
*M2/1	*M2/1	*M2/1	*M2/1
*met(C)	*met(C)	*met(C)	*met(C)
=1-	=1-	=1-	=1-
!!section: Agnus Dei I
!!!OMD: Agnus Dei I
0G	[0g	0d	1.g
.	.	.	2a/
=2	=2	=2	=2
0E	0g]	0G	1b
.	.	.	1cc
=3	=3	=3	=3
0D	[0f	1A	1.dd
.	.	1B	.
.	.	.	4cc\
.	.	.	4b\
=4	=4	=4	=4
1r	0f]	2A/	2cc\
.	.	2.d\	2b\
1D	.	.	1a
.	.	4c\	.
.	.	2d\	.
=5	=5	=5	=5
1.G	0g	2B\	2.g/
.	.	2G/	.
.	.	.	4a/
.	.	1d	2b\
2A\	.	.	2cc\
=6	=6	=6	=6
1B-	1f	2r	2.dd\
.	.	2d\	.
.	.	.	4cc\
1c	1e	2e\	[1cc
.	.	2f\	.
=7	=7	=7	=7
0G	0d	1g	2cc\]
.	.	.	2b\
.	.	2.g\	2.b\
.	.	4f\	4a/
=8	=8	=8	=8
2E\	0c	2g\	1.cc
1F	.	1a	.
4E\	.	4g\	2dd\
4D\	.	4f\	.
=9	=9	=9	=9
1C	1r	2.g\	1ee
.	.	4c\	.
[1F	[1c	2c\	2a/
.	.	[2A/	[2cc\
=10	=10	=10	=10
1F]	2c\]	4A/]	2cc\]
.	.	4G/	.
.	2d\	2A/	4b\
.	.	.	4a/
1E	1e	2B\	1g
.	.	[2c\	.
=11	=11	=11	=11
1A	1c	4c\]	2a/
.	.	4d\	.
.	.	4e\	2cc\
.	.	4f\	.
2G\	1d	2g\	2b\
2F\	.	2a\	[2a/
=12	=12	=12	=12
2G\	2B\	2d\	4a/]
.	.	.	4g/
2C/	2c\	2e\	1g
1D	1A	1d	.
.	.	.	2f#i/
=13	=13	=13	=13
2E\	[0G	2.B\	1g
4D\	.	.	.
4C/	.	4c\	.
2BB/	.	2d\	1r
[2C/	.	2c\	.
=14	=14	=14	=14
2C/]	0G]	2d\	1d
2BB/	.	2.g\	.
2.C/	.	.	2e/
.	.	4f\	.
.	.	[2e\	[2g/
4D\	.	.	.
=15	=15	=15	=15
2E\	0r	2e\]	2g/]
2F\	.	4d\	4f/
.	.	4c\	4e/
1G	.	2.B\	1d
.	.	4A/	.
=16	=16	=16	=16
1.C	1r	1c	1.e
.	1c	1A	.
2D\	.	.	2f/
=17	=17	=17	=17
1E	0c	2G/	1g
.	.	2g\	.
1F	.	2.f\	1a
.	.	4e\	.
=18	=18	=18	=18
0G	0B	1d	2b\
.	.	.	2cc\
.	.	1g	1dd
=19	=19	=19	=19
0C	0c	2.g\	1.ee
.	.	4f\	.
.	.	2g\	.
.	.	[2a\	[2cc\
=20	=20	=20	=20
1c	1r	4a\]	2cc\]
.	.	4g\	.
.	.	4f\	2a/
.	.	4e\	.
1A	1c	1f	2cc\
.	.	.	2dd\
=21	=21	=21	=21
1.G	1.d	2g\	1.b
.	.	4G/	.
.	.	4A/	.
.	.	2B\	.
2E\	2e\	[2c\	2g/
=22	=22	=22	=22
1D	1f	2c\]	2a/
.	.	2B\	4g/
.	.	.	4f/
1C	1g	2.c\	2e/
.	.	.	2g/
.	.	4d\	.
=23	=23	=23	=23
2r	2c\	2.e\	2a/
1c	1e	.	2g/
.	.	4f\	.
.	.	4g\	2cc\
.	.	4a\	.
2B-\	2f\	[2b-\	[2dd\
=24	=24	=24	=24
2G\	2g\	2b-\]	4dd\]
.	.	.	4cc\
2c\	2e\	2a\	1cc
1G	1d	1g	.
.	.	.	2b\
=25	=25	=25	=25
0A	0c	2f\	1cc
.	.	2.f\	.
.	.	.	1r
.	.	4e\	.
.	.	2f\	.
=26	=26	=26	=26
0G	0r	2g\	1b
.	.	4f\	.
.	.	4e\	.
.	.	1d	2b\
.	.	.	2b\
=27	=27	=27	=27
0C	1.e	1.c	2cc\
.	.	.	4b\
.	.	.	4a/
.	.	.	1g
.	2e\	[2G/	.
=28	=28	=28	=28
1C	1e	2G/]	1c
.	.	2A/	.
1BB-	2f\	1B-	1d
.	4e\	.	.
.	4d\	.	.
=29	=29	=29	=29
1C	1c	0G	1e
1E	1B	.	1g
=30	=30	=30	=30
1D	0d	1A	0f
1BB	.	1B	.
=31	=31	=31	=31
0Cl	0cl	0Gl	0el
!!LO:LB:i:g=z
=32||	=32||	=32||	=32||
*>B	*>B	*>B	*>B
*clefF4	*clefGv2	*clefGv2	*clefG2
*k[]	*k[]	*k[]	*k[]
*M2/1	*M2/1	*M2/1	*M2/1
*met(C)	*met(C)	*met(C)	*met(C)
!!section: Agnus Dei II
!!!OMD: Agnus Dei II
2.G\	0r	0g	0g
4A\	.	.	.
2B\	.	.	.
2c\	.	.	.
=33	=33	=33	=33
2A\	0r	0f	0a
2.d\	.	.	.
4c\	.	.	.
2A\	.	.	.
=34	=34	=34	=34
2G\	0r	0g	[0b
2.E\	.	.	.
4F\	.	.	.
[2G\	.	.	.
=35	=35	=35	=35
2G\]	0r	1d	1b]
2F\	.	.	.
1D	.	1f	2a/
.	.	.	2b\
=36	=36	=36	=36
1.C	0r	2.e\	0cc
.	.	4d\	.
.	.	2e\	.
[2F\	.	[2f\	.
=37	=37	=37	=37
2F\]	0r	4f\]	0dd
.	.	4e\	.
1.G	.	4d\	.
.	.	4c\	.
.	.	2.B\	.
.	.	4A/	.
=38	=38	=38	=38
1A	0r	1c	1r
1B	.	2r	1g
.	.	2d\	.
=39	=39	=39	=39
2.c\	0r	2e\	1a
.	.	2f\	.
4B\	.	.	.
1G	.	2g\	1b
.	.	[2e\	.
=40	=40	=40	=40
2r	0r	4e\]	2cc\
.	.	4d\	.
2F\	.	1d	4b\
.	.	.	4a/
2G\	.	.	1g
2E\	.	2c\	.
=41	=41	=41	=41
1D	0r	2d\	2r
.	.	2f\	2f/
1C	.	2e\	2g/
.	.	4d\	2e/
.	.	4c\	.
=42	=42	=42	=42
2r	0r	1B	1d
2G\	.	.	.
2A\	.	2c\	1c
[2c\	.	2A/	.
=43	=43	=43	=43
2c\]	0r	1G	2r
2B\	.	.	2g/
2c\	.	1r	2a/
2A\	.	.	[2cc\
=44	=44	=44	=44
1G	0r	1g	2cc\]
.	.	.	2b\
2C/	.	2e\	2cc\
2F\	.	2f\	2a/
=45	=45	=45	=45
2G\	0r	2e\	1g
2B\	.	2d\	.
1A	.	2e\	2c/
.	.	4d\	2f/
.	.	4c\	.
=46	=46	=46	=46
2G\	0r	2B\	2g/
1d	.	4A/	2b\
.	.	4G/	.
.	.	1F#i	1a
2c\	.	.	.
=47	=47	=47	=47
2B\	0r	2G/	2g/
4A\	.	2B\	1dd
4G\	.	.	.
2.F#i\	.	2.A/	.
.	.	.	2cc\
4E\	.	4G/	.
=48	=48	=48	=48
1G	0r	2B\	2b\
.	.	2c\	4a/
.	.	.	4g/
1D	.	1d	2.f#i/
.	.	.	4e/
=49	=49	=49	=49
2E\	0r	1G	1g
1E	.	.	.
.	.	1r	1r
4D\	.	.	.
4C/	.	.	.
=50	=50	=50	=50
1BB	0r	1d	0r
2.C/	.	2e\	.
.	.	[2e\	.
4D\	.	.	.
=51	=51	=51	=51
2E\	0r	2e\]	1r
2F\	.	4d\	.
.	.	4c\	.
1D	.	2.B\	1dd
.	.	4A/	.
=52	=52	=52	=52
2C/	0r	2.c\	2ee\
1c	.	.	1ee
.	.	4d\	.
.	.	2e\	.
2F\	.	2f\	4dd\
.	.	.	4cc\
=53	=53	=53	=53
1G	0r	1d	1b
2.A\	.	1c	2.cc\
4B\	.	.	4dd\
=54	=54	=54	=54
2c\	0r	1r	2ee\
2.d\	.	.	2ff\
.	.	1f	1dd
4A\	.	.	.
2B\	.	.	.
=55	=55	=55	=55
1c	0r	1.e	1cc
1r	.	.	1r
.	.	2e\	.
=56	=56	=56	=56
1f	0r	1d	0r
[1e	.	2c\	.
.	.	4B\	.
.	.	4A/	.
=57	=57	=57	=57
2e\]	0r	2G/	0r
2e\	.	1c	.
1d	.	.	.
.	.	2B\	.
=58	=58	=58	=58
2.c\	0r	1c	0r
4B\	.	.	.
1G	.	2B\	.
.	.	[2d\	.
=59	=59	=59	=59
2B\	0r	2d\]	0r
2A\	.	4c\	.
.	.	4B\	.
2c\	.	2A/	.
2B\	.	2G/	.
=60	=60	=60	=60
2d\	0r	2B\	0r
1d	.	4A/	.
.	.	4G/	.
.	.	2F/	.
4c\	.	[2G/	.
4B\	.	.	.
=61	=61	=61	=61
1A	0r	2G/]	0r
.	.	2F#i/	.
2.G\	.	2G/	.
.	.	[2d\	.
4F\	.	.	.
=62	=62	=62	=62
2B-\	0r	4d\]	0r
.	.	4c\	.
2A\	.	2f\	.
2.c\	.	2e\	.
.	.	[2g\	.
4B-i\	.	.	.
=63	=63	=63	=63
2G\	0r	2g\]	0r
2A\	.	2e\	.
2.B-\	.	2d\	.
.	.	[2f\	.
4A\	.	.	.
=64	=64	=64	=64
2F\	0r	2f\]	0r
2G\	.	2d\	.
2.A\	.	2c\	.
.	.	[2e\	.
4G\	.	.	.
=65	=65	=65	=65
2E\	0r	4e\]	0r
.	.	4d\	.
2F\	.	1c	.
1D	.	.	.
.	.	2B\	.
=66	=66	=66	=66
0Cl	0r	0cl	0ccl
!!LO:LB:i:g=z
=67||	=67||	=67||	=67||
*>C	*>C	*>C	*>C
*clefF4	*clefGv2	*clefGv2	*clefG2
*k[]	*k[]	*k[]	*k[]
*M2/1	*M2/1	*M2/1	*M2/1
*met(C)	*met(C)	*met(C)	*met(C)
!!section: Agnus Dei III
!!!OMD: Agnus Dei III
1c	0r	1c	0r
1B	.	1d	.
=68	=68	=68	=68
1.c	0r	1.e	1r
.	.	.	1g
2B\	.	4d\	.
.	.	4e\	.
=69	=69	=69	=69
1A	0r	1f	1a
1G	.	2g\	[1b
.	.	4f\	.
.	.	4e\	.
=70	=70	=70	=70
2r	0r	1d	2b\]
2G\	.	.	4a/
.	.	.	4b\
2A\	.	2c\	1cc
2c\	.	2e\	.
=71	=71	=71	=71
1G	0r	2d\	2dd\
.	.	1g	4cc\
.	.	.	4b\
1d	.	.	1a
.	.	2f#i\	.
=72	=72	=72	=72
1G	0r	1g	2g/
.	.	.	2b\
1D	.	1f	2a/
.	.	.	[2dd\
=73	=73	=73	=73
1A	0r	1e	2dd\]
.	.	.	2cc#i\
1B-	.	1d	1dd
=74	=74	=74	=74
1A	0r	1c	1ee
2B-\	.	2d\	2dd\
2G\	.	[2e\	2b\
=75	=75	=75	=75
2A\	0r	2e\]	2cc\
2D\	.	4d\	4b\
.	.	4c\	4a/
2E\	.	1B	1g
2G\	.	.	.
=76	=76	=76	=76
2F\	0r	2c\	2a/
2D\	.	2d\	2.b\
1E	.	2B\	.
.	.	.	4a/
.	.	2c\	[2g/
=77	=77	=77	=77
1D	0r	1A	2g/]
.	.	.	2f#i/
2d\	.	2G/	1g
2B\	.	2d\	.
=78	=78	=78	=78
2c\	0r	2e\	2r
2d\	.	2f\	2a/
2G\	.	2g\	2b\
2r	.	2a\	2cc\
=79	=79	=79	=79
1G	0r	2b-\	2dd\
.	.	4a\	2ee\
.	.	4g\	.
2d\	.	2f\	2ff\
4c\	.	[2a\	4ee\
4B\	.	.	4dd\
=80	=80	=80	=80
2A\	0r	2a\]	2cc\
1c	.	1g	1ee
2d\	.	[2f\	[2dd\
=81	=81	=81	=81
2B-\	0r	2f\]	2dd\]
2c\	.	2e\	1cc
1G	.	1d	.
.	.	.	2b\
=82	=82	=82	=82
1C	0r	1c	2cc\
.	.	.	2a/
1r	.	2B\	2g/
.	.	2A/	[2cc\
=83	=83	=83	=83
1C	0r	2G/	4cc\]
.	.	.	4b\
.	.	2c\	2a/
1BB-	.	1d	2g/
.	.	.	2f/
=84	=84	=84	=84
3%2CV	3%4cV	3%2cV	3%4eV
3%2E	.	3%2g	.
3%2FZ	3%2cZ	3%2aZ	3%2rZ
=85	=85	=85	=85
3%4GV	3%2BV	3%4gV	3%2dV
.	3%2B	.	3%2d
[3%2CZ	3%2cZ	3%2gZ	[3%2eZ
=86	=86	=86	=86
3%2C]V	3%2cV	3%4gV	3%2e]
3%2r	3%2G	.	3%2d
3%2FZ	3%2AZ	3%2cZ	3%2cZ
=87	=87	=87	=87
3%2EV	3%2GV	2e\V	3%2.gV
.	.	6f\	.
3%2C	3%2c	3g\	.
.	.	3a\	3e/
3%2BB-iZ	3%2dZ	3%2b-Z	3f/
.	.	.	3g/Z
=88	=88	=88	=88
3%2CV	3%2.cV	3%4gV	3%2eV
3%4GZ	.	.	3%4dZ
.	3B\	.	.
.	3B\	3%2gZ	.
.	3A/Z	.	.
=89	=89	=89	=89
3%4CV	3%2cV	3%2eV	3%4cV
.	3%4eZ	3%2c	.
3%2cZ	.	3%2AZ	3%2rZ
=90	=90	=90	=90
3%2cV	3%2cV	3%2rV	3%2gV
3%2F	3%2f	3%2c	3%2a
3%2AZ	3%2eZ	3%2cZ	3%2ccZ
=91	=91	=91	=91
3%4GV	3%4gV	3%2dV	3%4bV
.	.	3%2B	.
3%2CZ	3%2eZ	3%2cZ	3%2gZ
=92	=92	=92	=92
3%2.FV	3%2fV	3%4AV	3%2.aV
.	3%2.c	.	.
3E\	.	.	3g/
3%2CZ	.	[3%2cZ	3e/
.	3B\Z	.	3d/Z
=93	=93	=93	=93
3%2EV	3%2GV	3%2c]V	3%2.gV
3%4DZ	3%4AZ	3%4dZ	.
.	.	.	3f#i/
.	.	.	3f#i/
.	.	.	3e/Z
=94	=94	=94	=94
3%2EV	3%2GV	3%2BV	3%2gV
3%2F	3%2c	3%2A	3%2r
3%2AZ	3%2rZ	3%2cZ	3%2aZ
=95	=95	=95	=95
3%2GV	3%2dV	3%4BV	3%2bV
3%2E	3%2e	.	3%2r
3%2AZ	3%2rZ	3%2AZ	3%2ccZ
=96	=96	=96	=96
3%4DV	3%2.fV	3%4AV	3%2ddV
.	.	.	3%2r
.	3e\	.	.
3%2rZ	3%2cZ	3%2AZ	3%2eeZ
=97	=97	=97	=97
3%4DV	3%4dV	3%4aV	3%2.ffV
.	.	.	3ee\
3%2DZ	3%2fZ	[3%2aZ	3%2ddZ
=98	=98	=98	=98
3%2AV	3%2eV	3%2a]V	3%2ccV
3%2B-	3%2d	3%4fZ	3%2r
3%2dZ	3%2rZ	.	3%2ffZ
=99	=99	=99	=99
3%4cV	3%2gV	3%2gV	3%2eeV
.	3%2e	3%2a	3%2cc
[3%2B-iZ	3d\	2b-\	[3%2ddZ
.	[3f\Z	.	.
.	.	6a\Z	.
=100	=100	=100	=100
3%2B-]V	3f\]V	3f\V	3%2dd]V
.	3e\	3g\	.
3%2A	3%2c	3%2a	3%2eeZ
3%2B-iZ	3%2fZ	3%2dZ	3dd\
.	.	.	3cc\
=101	=101	=101	=101
3%2cV	3%2eV	3%4gV	3%2.ccV
3%4GZ	3%4dZ	.	.
.	.	.	3b\
.	.	3%2gZ	3b\
.	.	.	3a/Z
=102	=102	=102	=102
0C;l	0c;l	0g;l	0cc;l
==	==	==	==
*-	*-	*-	*-
!!!RDF**kern: l=long note in original notation
!!!RDF**kern: i=editorial accidental
!!!RDF**kern: V=start of tuplet marker
!!!RDF**kern: Z=end of tuplet marker
!!!ENC:	Chris Gage 11-13-2013
!!!END:	2014/06/21/
!!!EED:	Jesse Rodin
!!!EEV:	2015/03/09/
!!!ONB:	Translated from MusicXML and edited on 2015/03/09/ by Craig Sapp
!!muse2ps: T^@{OPR}^u^@{ONM}{. }@{OTL}^C^@{COM}^i2I150v85,85,85,150Q16
